X:986
T:Ronan Boys, The
R:reel
C:Liz Carroll
Z:id:hn-reel-986
M:C|
L:1/8
K:D
D2 (3FED FAAF | E2DE FAAB | ABde faaf | edBA FEE2 |
D2 (3FED FAAF | GFED FAdf | gfed B2dB | AFEF EDD2 :|
|: ~a3g fgag | addc defg | ~a3g fgaf | bdad g2fg |
~a3g fgaf | g2ed (3Bcd ef | gfed B2dB | AFEF EDD2 :|

